X:218
T:Shandon Bells
C:Joe Buchanan's Scottish Tome - Page 287.2
I:287 2
Z:Carl Allison
R:Jig
L:1/8
M:6/8
K:D
B | "D"AFD DFA | "Bm"ded "A"cBA | "Em"BGE EFA | "Em"B2 A "G"Bcd |
"D"AFD DFA | "Bm"ded "A"cBA | "E7"Bcd "A"ecA | "D"d3 d2 |
g | "D"f2 d ded | "D"faa afd | "A"cAA eAA | "A7"cAA efg |
"D"f2 d ded | "D"faa afd | "G"Bcd "A7"ecA | "D"d3 d2 |
%
W:Errata: Part B, second measure, changed the "Dm" chord to "D".

